assets/img/index/mindfulness-logo.svg

<svg width="222" height="70" viewBox="0 0 222 70" fill="none" xmlns="http://www.w3.org/2000/svg">
<path d="M50.5629 41.0744C57.4302 37.2215 66.1189 39.6073 70.0561 46.4265L64.1309 49.8474C57.2322 53.8305 48.4089 51.4169 44.498 44.4771L50.5629 41.0744Z" fill="#FBFBFB"/>
<path d="M48.0514 38.3732C51.9743 31.5785 60.6631 29.2504 67.4578 33.1734L63.9064 39.3251C59.9831 46.1199 51.2947 48.4481 44.5 44.5248L48.0514 38.3732Z" fill="#FBFBFB"/>
<path d="M44.1924 37.7151C44.1924 29.4742 50.873 22.7936 59.1137 22.7936V29.757C59.1137 37.9977 52.4331 44.6783 44.1924 44.6783V37.7151Z" fill="#FBFBFB"/>
<path d="M40.6713 37.9988C36.7483 31.204 39.0763 22.5154 45.8714 18.5924L49.4228 24.744C53.3461 31.5389 51.0178 40.2275 44.2231 44.1504L40.6713 37.9988Z" fill="#FBFBFB"/>
<path d="M44.1922 36.7202C44.1922 29.0289 37.9571 22.7936 30.2656 22.7936V30.7517C30.2656 38.4432 36.5008 44.6783 44.1922 44.6783V36.7202Z" fill="#FBFBFB"/>
<path d="M41.1937 38.3732C37.2707 31.5785 28.582 29.2504 21.7871 33.1734L25.3387 39.3251C29.2618 46.1199 37.9503 48.4481 44.7451 44.5248L41.1937 38.3732Z" fill="#FBFBFB"/>
<path d="M38.6814 41.0744C31.8143 37.2215 23.1256 39.6073 19.1885 46.4265L25.1135 49.8474C32.0123 53.8305 40.8357 51.4169 44.7466 44.4771L38.6814 41.0744Z" fill="#FBFBFB"/>
<path d="M95.3764 28.1487V43.5707H92.2832V33.5397L88.1514 43.5707H85.8093L81.6556 33.5397V43.5707H78.5625V28.1487H82.0756L86.9804 39.6157L91.8855 28.1487H95.3764Z" fill="#FBFBFB"/>
<path d="M99.1199 29.8721C98.5749 29.8721 98.1181 29.7027 97.7498 29.3639C97.3966 29.0104 97.2197 28.5759 97.2197 28.0604C97.2197 27.5449 97.3966 27.1177 97.7498 26.7789C98.1181 26.4254 98.5749 26.2487 99.1199 26.2487C99.6646 26.2487 100.114 26.4254 100.467 26.7789C100.836 27.1177 101.02 27.5449 101.02 28.0604C101.02 28.5759 100.836 29.0104 100.467 29.3639C100.114 29.7027 99.6646 29.8721 99.1199 29.8721ZM100.644 31.3303V43.5707H97.5511V31.3303H100.644Z" fill="#FBFBFB"/>
<path d="M109.599 31.1536C111.058 31.1536 112.236 31.6175 113.134 32.5455C114.033 33.4587 114.482 34.7402 114.482 36.3899V43.5707H111.389V36.8099C111.389 35.8375 111.146 35.0937 110.66 34.5782C110.174 34.0479 109.511 33.7828 108.672 33.7828C107.817 33.7828 107.14 34.0479 106.639 34.5782C106.153 35.0937 105.91 35.8375 105.91 36.8099V43.5707H102.816V31.3303H105.91V32.8548C106.322 32.3246 106.845 31.9121 107.478 31.6175C108.127 31.3082 108.833 31.1536 109.599 31.1536Z" fill="#FBFBFB"/>
<path d="M115.744 37.4063C115.744 36.1689 115.987 35.0716 116.473 34.1142C116.974 33.1567 117.652 32.4203 118.506 31.9047C119.36 31.3892 120.311 31.1314 121.356 31.1314C122.152 31.1314 122.91 31.3082 123.632 31.6617C124.354 32.0005 124.928 32.4571 125.355 33.0315V27.2208H128.493V43.5707H125.355V41.7587C124.972 42.3628 124.435 42.8488 123.742 43.217C123.05 43.5852 122.247 43.7694 121.334 43.7694C120.303 43.7694 119.36 43.5043 118.506 42.9738C117.652 42.4437 116.974 41.7 116.473 40.7426C115.987 39.7702 115.744 38.6583 115.744 37.4063ZM125.377 37.4504C125.377 36.6993 125.23 36.0584 124.935 35.5282C124.641 34.9832 124.243 34.5708 123.742 34.2909C123.241 33.9963 122.704 33.849 122.129 33.849C121.555 33.849 121.025 33.989 120.539 34.2688C120.052 34.5487 119.655 34.9611 119.345 35.5061C119.051 36.0364 118.904 36.6698 118.904 37.4063C118.904 38.1427 119.051 38.7906 119.345 39.3506C119.655 39.8957 120.052 40.3153 120.539 40.6099C121.039 40.9045 121.57 41.0517 122.129 41.0517C122.704 41.0517 123.241 40.9117 123.742 40.6321C124.243 40.3375 124.641 39.9248 124.935 39.3947C125.23 38.8497 125.377 38.2014 125.377 37.4504Z" fill="#FBFBFB"/>
<path d="M136.242 33.8712H134.099V43.5707H130.961V33.8712H129.569V31.3303H130.961V30.7117C130.961 29.2093 131.388 28.1046 132.242 27.3976C133.097 26.6905 134.386 26.3591 136.109 26.4033V29.0104C135.358 28.9957 134.835 29.1209 134.54 29.386C134.246 29.6512 134.099 30.1299 134.099 30.8222V31.3303H136.242V33.8712Z" fill="#FBFBFB"/>
<path d="M148.919 31.3303V43.5707H145.804V42.0238C145.406 42.5542 144.883 42.9739 144.235 43.2834C143.601 43.578 142.909 43.7253 142.158 43.7253C141.201 43.7253 140.354 43.5262 139.617 43.1288C138.881 42.7161 138.299 42.1197 137.872 41.3391C137.459 40.5436 137.253 39.6011 137.253 38.511V31.3303H140.346V38.0691C140.346 39.0411 140.589 39.7925 141.075 40.3226C141.562 40.8381 142.224 41.0959 143.064 41.0959C143.918 41.0959 144.588 40.8381 145.074 40.3226C145.56 39.7925 145.804 39.0411 145.804 38.0691V31.3303H148.919Z" fill="#FBFBFB"/>
<path d="M154.18 27.2208V43.5707H151.087V27.2208H154.18Z" fill="#FBFBFB"/>
<path d="M163.135 31.1536C164.593 31.1536 165.771 31.6175 166.67 32.5455C167.568 33.4587 168.017 34.7402 168.017 36.3899V43.5707H164.924V36.8099C164.924 35.8375 164.681 35.0937 164.195 34.5782C163.709 34.0479 163.046 33.7828 162.207 33.7828C161.352 33.7828 160.675 34.0479 160.174 34.5782C159.688 35.0937 159.445 35.8375 159.445 36.8099V43.5707H156.352V31.3303H159.445V32.8548C159.857 32.3246 160.38 31.9121 161.013 31.6175C161.662 31.3082 162.369 31.1536 163.135 31.1536Z" fill="#FBFBFB"/>
<path d="M181.454 37.1854C181.454 37.6273 181.425 38.025 181.366 38.3783H172.418C172.492 39.262 172.801 39.9544 173.346 40.4553C173.891 40.9559 174.561 41.2064 175.356 41.2064C176.505 41.2064 177.323 40.7131 177.809 39.7262H181.145C180.792 40.9045 180.114 41.8765 179.112 42.6425C178.111 43.3939 176.881 43.7694 175.422 43.7694C174.244 43.7694 173.184 43.5116 172.241 42.9961C171.313 42.466 170.584 41.7219 170.054 40.7645C169.538 39.8071 169.28 38.7024 169.28 37.4504C169.28 36.1837 169.538 35.0716 170.054 34.1142C170.569 33.1568 171.291 32.4203 172.219 31.9048C173.147 31.3892 174.215 31.1315 175.422 31.1315C176.586 31.1315 177.624 31.3819 178.538 31.8827C179.466 32.3835 180.18 33.0978 180.681 34.0258C181.197 34.939 181.454 35.9922 181.454 37.1854ZM178.25 36.3015C178.236 35.5061 177.949 34.8728 177.389 34.4014C176.829 33.9154 176.144 33.6723 175.334 33.6723C174.568 33.6723 173.92 33.908 173.39 34.3793C172.874 34.8359 172.558 35.4767 172.44 36.3015H178.25Z" fill="#FBFBFB"/>
<path d="M187.512 43.7694C186.51 43.7694 185.612 43.5926 184.816 43.2393C184.021 42.8711 183.387 42.3774 182.916 41.7587C182.46 41.14 182.209 40.4553 182.165 39.7039H185.28C185.339 40.1753 185.568 40.5658 185.965 40.875C186.378 41.1845 186.886 41.3391 187.49 41.3391C188.079 41.3391 188.536 41.2213 188.86 40.9854C189.199 40.7499 189.368 40.448 189.368 40.0798C189.368 39.682 189.162 39.3875 188.749 39.1961C188.352 38.9897 187.711 38.7688 186.827 38.5329C185.914 38.3119 185.163 38.0837 184.573 37.8482C183.999 37.6123 183.498 37.2517 183.071 36.7654C182.659 36.2794 182.452 35.624 182.452 34.7991C182.452 34.1216 182.644 33.5029 183.027 32.9432C183.424 32.3835 183.984 31.9416 184.706 31.6175C185.442 31.2935 186.304 31.1315 187.291 31.1315C188.749 31.1315 189.913 31.4997 190.782 32.2362C191.651 32.9579 192.129 33.9375 192.218 35.1747H189.257C189.213 34.6886 189.007 34.3057 188.639 34.0258C188.285 33.7312 187.807 33.5839 187.202 33.5839C186.643 33.5839 186.208 33.6871 185.899 33.8933C185.605 34.0995 185.457 34.3867 185.457 34.7549C185.457 35.1674 185.663 35.484 186.076 35.705C186.488 35.9112 187.129 36.1248 187.998 36.3457C188.882 36.5667 189.611 36.7949 190.185 37.0308C190.76 37.2663 191.253 37.6345 191.666 38.1355C192.093 38.6215 192.314 39.2697 192.329 40.0798C192.329 40.7867 192.129 41.42 191.732 41.9796C191.349 42.5396 190.789 42.9815 190.053 43.3053C189.331 43.6148 188.484 43.7694 187.512 43.7694Z" fill="#FBFBFB"/>
<path d="M198.668 43.7694C197.666 43.7694 196.768 43.5926 195.973 43.2393C195.177 42.8711 194.544 42.3774 194.073 41.7587C193.616 41.14 193.365 40.4553 193.321 39.7039H196.437C196.496 40.1753 196.724 40.5658 197.122 40.875C197.534 41.1845 198.042 41.3391 198.646 41.3391C199.235 41.3391 199.692 41.2213 200.016 40.9854C200.355 40.7499 200.524 40.448 200.524 40.0798C200.524 39.682 200.318 39.3875 199.905 39.1961C199.508 38.9897 198.867 38.7688 197.983 38.5329C197.07 38.3119 196.319 38.0837 195.73 37.8482C195.155 37.6123 194.654 37.2517 194.227 36.7654C193.815 36.2794 193.609 35.624 193.609 34.7991C193.609 34.1216 193.8 33.5029 194.183 32.9432C194.581 32.3835 195.141 31.9416 195.862 31.6175C196.599 31.2935 197.46 31.1315 198.447 31.1315C199.905 31.1315 201.069 31.4997 201.938 32.2362C202.807 32.9579 203.286 33.9375 203.374 35.1747H200.414C200.369 34.6886 200.163 34.3057 199.795 34.0258C199.442 33.7312 198.963 33.5839 198.359 33.5839C197.799 33.5839 197.365 33.6871 197.055 33.8933C196.761 34.0995 196.613 34.3867 196.613 34.7549C196.613 35.1674 196.819 35.484 197.232 35.705C197.645 35.9112 198.285 36.1248 199.154 36.3457C200.038 36.5667 200.767 36.7949 201.341 37.0308C201.916 37.2663 202.41 37.6345 202.822 38.1355C203.249 38.6215 203.47 39.2697 203.485 40.0798C203.485 40.7867 203.286 41.42 202.888 41.9796C202.505 42.5396 201.946 42.9815 201.209 43.3053C200.487 43.6148 199.64 43.7694 198.668 43.7694Z" fill="#FBFBFB"/>
</svg>

<svg xmlns="http://www.w3.org/2000/svg" width="222" height="70" fill="none"><path d="M50.563 41.074c6.867-3.852 15.556-1.467 19.493 5.352l-5.925 3.421c-6.899 3.983-15.722 1.57-19.633-5.37l6.065-3.403Z"/><path  d="M48.051 38.373c3.923-6.794 12.612-9.123 19.407-5.2l-3.552 6.152c-3.923 6.795-12.611 9.123-19.406 5.2l3.551-6.152Z"/><path d="M44.192 37.715c0-8.24 6.681-14.921 14.922-14.921v6.963c0 8.24-6.68 14.921-14.922 14.921v-6.963Z"/><path d="M40.671 37.999c-3.923-6.795-1.595-15.484 5.2-19.407l3.552 6.152c3.923 6.795 1.595 15.483-5.2 19.406L40.671 38Z"/><path d="M44.192 36.72c0-7.691-6.235-13.926-13.926-13.926v7.958c0 7.691 6.235 13.926 13.926 13.926V36.72Z"/><path d="M41.194 38.373c-3.923-6.794-12.612-9.123-19.407-5.2l3.552 6.152c3.923 6.795 12.611 9.123 19.406 5.2l-3.551-6.152Z"/><path d="M38.681 41.074c-6.867-3.852-15.555-1.467-19.492 5.352l5.924 3.421c6.9 3.983 15.723 1.57 19.634-5.37l-6.066-3.403ZM95.376 28.149V43.57h-3.093V33.54l-4.132 10.03H85.81l-4.153-10.03v10.03h-3.094V28.15h3.514l4.904 11.467 4.905-11.467h3.491ZM99.12 29.872c-.545 0-1.002-.17-1.37-.508a1.773 1.773 0 0 1-.53-1.304c0-.515.177-.942.53-1.281.368-.354.825-.53 1.37-.53.545 0 .994.176 1.347.53.369.339.553.766.553 1.281 0 .516-.184.95-.553 1.304-.353.339-.802.508-1.347.508Zm1.524 1.458v12.24h-3.093V31.33h3.093ZM109.599 31.154c1.459 0 2.637.463 3.535 1.391.899.914 1.348 2.195 1.348 3.845v7.18h-3.093v-6.76c0-.973-.243-1.716-.729-2.232-.486-.53-1.149-.795-1.988-.795-.855 0-1.532.265-2.033.795-.486.516-.729 1.26-.729 2.232v6.76h-3.094V31.33h3.094v1.525c.412-.53.935-.943 1.568-1.237a4.863 4.863 0 0 1 2.121-.464ZM115.744 37.406c0-1.237.243-2.334.729-3.292.501-.957 1.179-1.694 2.033-2.21.854-.515 1.805-.773 2.85-.773a5.11 5.11 0 0 1 2.276.53c.722.34 1.296.796 1.723 1.37v-5.81h3.138v16.35h-3.138v-1.812c-.383.604-.92 1.09-1.613 1.458-.692.368-1.495.552-2.408.552a5.255 5.255 0 0 1-2.828-.795c-.854-.53-1.532-1.274-2.033-2.231-.486-.973-.729-2.085-.729-3.337Zm9.633.044c0-.75-.147-1.392-.442-1.922a3.018 3.018 0 0 0-1.193-1.237 3.127 3.127 0 0 0-1.613-.442c-.574 0-1.104.14-1.59.42-.487.28-.884.692-1.194 1.237-.294.53-.441 1.164-.441 1.9 0 .737.147 1.385.441 1.945.31.545.707.964 1.194 1.259.5.294 1.031.442 1.59.442.575 0 1.112-.14 1.613-.42a3.21 3.21 0 0 0 1.193-1.237c.295-.545.442-1.194.442-1.945ZM136.242 33.871h-2.143v9.7h-3.138v-9.7h-1.392v-2.54h1.392v-.62c0-1.502.427-2.606 1.281-3.313.855-.707 2.144-1.039 3.867-.995v2.607c-.751-.014-1.274.11-1.569.376-.294.265-.441.744-.441 1.436v.508h2.143v2.541ZM148.919 31.33v12.24h-3.115v-1.546c-.398.53-.921.95-1.569 1.26a4.867 4.867 0 0 1-2.077.441c-.957 0-1.804-.199-2.541-.596-.736-.413-1.318-1.01-1.745-1.79-.413-.795-.619-1.738-.619-2.828v-7.18h3.093v6.738c0 .972.243 1.723.729 2.254.487.515 1.149.773 1.989.773.854 0 1.524-.258 2.01-.773.486-.53.73-1.282.73-2.254V31.33h3.115ZM154.18 27.22v16.35h-3.093V27.22h3.093ZM163.135 31.154c1.458 0 2.636.463 3.535 1.391.898.914 1.347 2.195 1.347 3.845v7.18h-3.093v-6.76c0-.973-.243-1.716-.729-2.232-.486-.53-1.149-.795-1.988-.795-.855 0-1.532.265-2.033.795-.486.516-.729 1.26-.729 2.232v6.76h-3.093V31.33h3.093v1.525c.412-.53.935-.943 1.568-1.237a4.867 4.867 0 0 1 2.122-.464ZM181.454 37.185c0 .442-.029.84-.088 1.193h-8.948c.074.884.383 1.576.928 2.077.545.5 1.215.751 2.01.751 1.149 0 1.967-.493 2.453-1.48h3.336c-.353 1.178-1.031 2.15-2.033 2.916-1.001.752-2.231 1.127-3.69 1.127-1.178 0-2.238-.257-3.181-.773a5.688 5.688 0 0 1-2.187-2.232c-.516-.957-.774-2.062-.774-3.314 0-1.266.258-2.378.774-3.336a5.391 5.391 0 0 1 2.165-2.21c.928-.515 1.996-.773 3.203-.773 1.164 0 2.202.25 3.116.752a5.182 5.182 0 0 1 2.143 2.143c.516.913.773 1.966.773 3.16Zm-3.204-.884c-.014-.795-.301-1.428-.861-1.9-.56-.486-1.245-.729-2.055-.729-.766 0-1.414.236-1.944.707-.516.457-.832 1.098-.95 1.922h5.81ZM187.512 43.77c-1.002 0-1.9-.177-2.696-.53-.795-.369-1.429-.863-1.9-1.481a3.77 3.77 0 0 1-.751-2.055h3.115c.059.471.288.862.685 1.171.413.31.921.464 1.525.464.589 0 1.046-.118 1.37-.354.339-.235.508-.537.508-.905 0-.398-.206-.692-.619-.884-.397-.206-1.038-.427-1.922-.663-.913-.221-1.664-.45-2.254-.685a4.007 4.007 0 0 1-1.502-1.083c-.412-.486-.619-1.141-.619-1.966 0-.677.192-1.296.575-1.856.397-.56.957-1.001 1.679-1.325.736-.324 1.598-.486 2.585-.486 1.458 0 2.622.368 3.491 1.104.869.722 1.347 1.702 1.436 2.939h-2.961c-.044-.486-.25-.87-.618-1.15-.354-.294-.832-.441-1.437-.441-.559 0-.994.103-1.303.31a.994.994 0 0 0-.442.86c0 .413.206.73.619.951.412.206 1.053.42 1.922.64.884.222 1.613.45 2.187.686a3.732 3.732 0 0 1 1.481 1.105c.427.485.648 1.134.663 1.944 0 .707-.2 1.34-.597 1.9-.383.56-.943 1.002-1.679 1.325-.722.31-1.569.464-2.541.464ZM198.668 43.77c-1.002 0-1.9-.177-2.695-.53-.796-.369-1.429-.863-1.9-1.481a3.763 3.763 0 0 1-.752-2.055h3.116c.059.471.287.862.685 1.171.412.31.92.464 1.524.464.589 0 1.046-.118 1.37-.354.339-.235.508-.537.508-.905 0-.398-.206-.692-.619-.884-.397-.206-1.038-.427-1.922-.663-.913-.221-1.664-.45-2.253-.685a4.002 4.002 0 0 1-1.503-1.083c-.412-.486-.618-1.141-.618-1.966 0-.677.191-1.296.574-1.856.398-.56.958-1.001 1.679-1.325.737-.324 1.598-.486 2.585-.486 1.458 0 2.622.368 3.491 1.104.869.722 1.348 1.702 1.436 2.939h-2.96c-.045-.486-.251-.87-.619-1.15-.353-.294-.832-.441-1.436-.441-.56 0-.994.103-1.304.31a.994.994 0 0 0-.442.86c0 .413.206.73.619.951.413.206 1.053.42 1.922.64.884.222 1.613.45 2.187.686a3.725 3.725 0 0 1 1.481 1.105c.427.485.648 1.134.663 1.944 0 .707-.199 1.34-.597 1.9-.383.56-.942 1.002-1.679 1.325-.722.31-1.569.464-2.541.464Z"/></svg>
